X: 41304
T: Tune For Kieran
R: reel
M: 4/4
K: Bminor
|:B2ba e3B-|Bcad decA|F3B G3d|Bg2 f2 ecd|
Bbba e2Bc-|~c2ad decA|B2Bf g2ge|fecd B-~B3:|
Bc c/c/c c/c/c ac|cd d/d/d adbd|Bc c/c/c c/c/c ac|cBce fedc|
Bc c/c/c c/c/c ac|cd d/d/d a4|Bc c/c/c c/c/c ac|fecd B3B|
Bc c/c/c A3c|cd d/d/d adbd|Bc c/c/c c/c/c ac|cBce f2ec|
Bc c/c/c c/c/c ac|cd d/d/d a4|BgfB fece|fecd B2BB||

